64x64/apps/atril.svg

<svg xmlns="http://www.w3.org/2000/svg" width="64" height="64" version="1">
 <path style="opacity:0.2" d="M 55,58.15 V 6.8499999 c 0,-1.5789 -1.310125,-2.85 -2.937501,-2.85 H 10.9375 c -1.627375,0 -2.9375,1.2711 -2.9375,2.85 V 58.15 C 8,59.7289 9.310125,61 10.9375,61 H 52.062499 C 53.689875,61 55,59.7289 55,58.15 Z"/>
 <path style="fill:#ce3f39" d="M 55,57.15 V 5.8499999 c 0,-1.5789 -1.310125,-2.85 -2.937501,-2.85 H 10.9375 c -1.627375,0 -2.9375,1.2711 -2.9375,2.85 V 57.15 C 8,58.7289 9.310125,60 10.9375,60 H 52.062499 C 53.689875,60 55,58.7289 55,57.15 Z"/>
 <path style="opacity:0.3" d="M 14.833984 7 C 13.264318 7 12 8.2643181 12 9.8339844 L 12 21.166016 C 12 22.735682 13.264318 24 14.833984 24 L 26.166016 24 C 27.735683 24 29 22.735682 29 21.166016 L 29 9.8339844 C 29 8.2643181 27.735683 7 26.166016 7 L 14.833984 7 z M 34 7 L 34 10 L 51 10 L 51 7 L 34 7 z M 34 14 L 34 17 L 51 17 L 51 14 L 34 14 z M 34 21 L 34 24 L 51 24 L 51 21 L 34 21 z M 12 28 L 12 31 L 51 31 L 51 28 L 12 28 z M 12 35 L 12 38 L 51 38 L 51 35 L 12 35 z M 12 42 L 12 45 L 51 45 L 51 42 L 12 42 z M 12 49 L 12 52 L 51 52 L 51 49 L 12 49 z"/>
 <circle style="opacity:0.2" cx="47.5" cy="48.5" r="15.5"/>
 <circle style="fill:#5b5b5b" cx="47.5" cy="47.5" r="15.5"/>
 <path style="fill:#f4f4f7;fill-rule:evenodd" d="M 47.5 40 C 45.270725 40.02265 43.025759 40.554788 41.083984 41.703125 C 40.31002 42.229173 39.381847 42.909242 38.681641 43.59375 C 37.579811 44.719617 36.636381 46.032408 36 47.501953 C 37.746418 51.52209 41.586739 54.469148 45.810547 54.904297 C 48.581183 55.23155 51.480461 54.731372 53.916016 53.300781 C 54.689952 52.774732 55.618153 52.094663 56.318359 51.410156 C 57.420203 50.284273 58.363618 48.97135 59 47.501953 C 57.253437 43.481968 53.413403 40.534458 49.189453 40.099609 C 48.629 40.031359 48.064233 40 47.5 40 z M 47.503906 43 C 49.911046 42.94667 52.043433 45.101461 51.998047 47.496094 C 52.075167 50.142682 49.438692 52.425966 46.832031 51.931641 C 44.199305 51.622508 42.349054 48.670003 43.214844 46.167969 C 43.767829 44.326082 45.575346 42.977231 47.503906 43 z M 47.5 46 A 1.5000073 1.5000006 0 0 0 46 47.5 A 1.5000073 1.5000006 0 0 0 47.5 49 A 1.5000073 1.5000006 0 0 0 49 47.5 A 1.5000073 1.5000006 0 0 0 47.5 46.001953 L 47.5 46 z"/>
 <path style="fill:#f4f4f7;opacity:0.2" d="M 10.9375 3 C 9.310125 3 8 4.2707094 8 5.8496094 L 8 6.8496094 C 8 5.2707094 9.310125 4 10.9375 4 L 52.0625 4 C 53.689876 4 55 5.2707094 55 6.8496094 L 55 5.8496094 C 55 4.2707094 53.689876 3 52.0625 3 L 10.9375 3 z"/>
</svg>

<svg xmlns="http://www.w3.org/2000/svg" width="64" height="64" version="1"><path style="opacity:.2" d="M55 58.15V6.85C55 5.271 53.69 4 52.062 4H10.938C9.31 4 8 5.271 8 6.85v51.3C8 59.729 9.31 61 10.938 61h41.124C53.69 61 55 59.729 55 58.15z"/><path style="fill:#ce3f39" d="M55 57.15V5.85C55 4.271 53.69 3 52.062 3H10.938C9.31 3 8 4.271 8 5.85v51.3C8 58.729 9.31 60 10.938 60h41.124C53.69 60 55 58.729 55 57.15z"/><path style="opacity:.3" d="M14.834 7A2.828 2.828 0 0 0 12 9.834v11.332A2.828 2.828 0 0 0 14.834 24h11.332A2.828 2.828 0 0 0 29 21.166V9.834A2.828 2.828 0 0 0 26.166 7H14.834zM34 7v3h17V7H34zm0 7v3h17v-3H34zm0 7v3h17v-3H34zm-22 7v3h39v-3H12zm0 7v3h39v-3H12zm0 7v3h39v-3H12zm0 7v3h39v-3H12z"/><circle style="opacity:.2" cx="47.5" cy="48.5" r="15.5"/><circle style="fill:#5b5b5b" cx="47.5" cy="47.5" r="15.5"/><path style="fill:#f4f4f7;fill-rule:evenodd" d="M47.5 40c-2.23.023-4.474.555-6.416 1.703-.774.526-1.702 1.206-2.402 1.89-1.102 1.127-2.046 2.44-2.682 3.909 1.746 4.02 5.587 6.967 9.81 7.402 2.771.328 5.67-.173 8.106-1.603.774-.526 1.702-1.206 2.402-1.89 1.102-1.127 2.046-2.44 2.682-3.909-1.747-4.02-5.587-6.968-9.81-7.402a13.98 13.98 0 0 0-1.69-.1zm.004 3c2.407-.053 4.54 2.101 4.494 4.496.077 2.647-2.56 4.93-5.166 4.436-2.633-.31-4.483-3.262-3.617-5.764.553-1.842 2.36-3.19 4.289-3.168zm-.004 3a1.5 1.5 0 0 0-1.5 1.5 1.5 1.5 0 0 0 1.5 1.5 1.5 1.5 0 0 0 1.5-1.5 1.5 1.5 0 0 0-1.5-1.498V46z"/><path style="fill:#f4f4f7;opacity:.2" d="M10.938 3C9.31 3 8 4.27 8 5.85v1C8 5.27 9.31 4 10.938 4h41.124C53.69 4 55 5.27 55 6.85v-1C55 4.27 53.69 3 52.062 3H10.938z"/></svg>
